dist/flags/s/598.svg

<svg width="16" height="12" viewBox="0 0 16 12" fill="none" xmlns="http://www.w3.org/2000/svg">
<mask id="mask0" mask-type="alpha" maskUnits="userSpaceOnUse" x="0" y="0" width="16" height="12">
<rect width="16" height="12" fill="white"/>
</mask>
<g mask="url(#mask0)">
<rect width="16" height="12" fill="#E11C1B"/>
<path fill-rule="evenodd" clip-rule="evenodd" d="M0 0L16 12H0V0Z" fill="#1D1D1D"/>
<path fill-rule="evenodd" clip-rule="evenodd" d="M3.54169 9.13422H4.2076L4.52429 8.38757L4.89653 9.12919L5.57879 9.1665L4.99572 9.80113L5.29511 10.5657L4.55397 10.1401L3.86958 10.5695L4.12775 9.82715L3.54169 9.13422Z" fill="#EEEEF6"/>
<path fill-rule="evenodd" clip-rule="evenodd" d="M1.54169 7.13422H2.2076L2.52429 6.38757L2.89653 7.12919L3.57879 7.1665L2.99572 7.80113L3.29511 8.56566L2.55397 8.14008L1.86958 8.56947L2.12775 7.82715L1.54169 7.13422Z" fill="#EEEEF6"/>
<path fill-rule="evenodd" clip-rule="evenodd" d="M3.54169 6.13422H4.2076L4.52429 5.38757L4.89653 6.12919L5.57879 6.1665L4.99572 6.80113L5.29511 7.56566L4.55397 7.14008L3.86958 7.56947L4.12775 6.82715L3.54169 6.13422Z" fill="#EEEEF6"/>
<path fill-rule="evenodd" clip-rule="evenodd" d="M4.85562 8.28212L5.31336 8.2669L5.47859 7.7948L5.6641 8.26438L6.0853 8.30487L5.70601 8.57304L6.01191 9.04793L5.48119 8.84942L5.0212 9.05431L5.26412 8.5861L4.85562 8.28212Z" fill="#EEEEF6"/>
<path fill-rule="evenodd" clip-rule="evenodd" d="M5.85562 7.28212L6.31336 7.2669L6.47859 6.7948L6.6641 7.26438L7.0853 7.30487L6.70601 7.57304L7.01191 8.04793L6.48119 7.84942L6.0212 8.05431L6.26412 7.5861L5.85562 7.28212Z" fill="#EEEEF6"/>
<path fill-rule="evenodd" clip-rule="evenodd" d="M10.5419 1C10.5419 1 8.99756 1.3081 9.431 3.45492H9.21067C9.21067 3.45492 9.22869 3.3429 9.01686 3.27721C8.80502 3.21153 8.84744 3.23619 8.73813 3.27721C8.62881 3.31824 7.96373 3.27721 7.96373 3.27721V3.35939L8.43438 3.56265C8.43438 3.56265 8.42278 3.7319 8.61953 3.82569C8.81629 3.91947 8.95916 3.96466 8.95916 3.96466C8.95916 3.96466 8.98828 4.15143 8.80391 4.15143C8.61953 4.15143 7.87799 3.91106 7.61425 4.50162C7.35052 5.09218 7 5.52548 7 5.52548H7.39546L7.28934 5.65736H7.73463L7.61425 5.72568C7.61425 5.72568 8.16513 5.71955 8.20809 5.65736C8.25104 5.59516 8.20809 5.82597 8.20809 5.82597C8.20809 5.82597 8.74173 5.58228 8.77097 5.52548L9.02005 5.69634L9.091 5.4072L9.35826 5.52548L9.431 5.24999C9.431 5.24999 10.187 6.51439 10.7605 6.44182V6.23197L11.2837 6.44182L11.3502 6.3485C11.3502 6.3485 11.9823 6.60627 12.1769 6.63016L12.0381 6.3485H12.1769L12.0381 5.82597H12.1769L11.8993 5.4072L11.9771 5.29382L11.9256 5.14481C11.9256 5.14481 12.9433 5.46902 12.8974 5.98484C12.8515 6.50066 12.3983 6.70881 12.3983 6.70881C12.3983 6.70881 11.9636 6.84196 11.571 6.81331C11.571 6.81331 11.8827 7.18144 12.5421 7.0567C13.2015 6.93196 13.42 6.2926 13.42 6.2926C13.42 6.2926 13.7224 6.92061 13.4735 7.25082C13.2245 7.58102 12.1163 7.81285 12.1163 7.81285C12.1163 7.81285 12.5173 8.04795 12.8974 7.98771C13.2776 7.92747 13.8688 7.59658 13.9834 7.0567C14.0981 6.51682 13.588 5.52059 13.357 5.4072L13.2657 5.06157L13.4735 5.14481L13.0473 4.10258L13.2539 4.14786L12.6509 3.39778L12.817 3.34664L11.9839 2.74783L12.2332 2.68198C12.2332 2.68198 11.6174 2.36993 10.915 2.74783L10.9217 2.61727L10.7371 2.64848L10.748 2.50486L10.9315 2.22691L10.6561 2.12079C10.6561 2.12079 10.8787 1.78634 10.8453 1.79093C10.8453 1.79093 10.5972 1.86214 10.6112 1.83229C10.6112 1.83229 10.7364 1.50995 10.7035 1.51858C10.7035 1.51858 10.4157 1.61645 10.4583 1.56748L10.5689 1.37055L10.5419 1Z" fill="#FBCD17"/>
</g>
</svg>

<svg width="16" height="12" fill="none" xmlns="http://www.w3.org/2000/svg">
  <mask id="a" maskUnits="userSpaceOnUse" x="0" y="0" width="16" height="12">
    <path fill="#fff" d="M0 0h16v12H0z"/>
  </mask>
  <g mask="url(#a)">
    <path fill="#E11C1B" d="M0 0h16v12H0z"/>
    <path fill-rule="evenodd" clip-rule="evenodd" d="M0 0l16 12H0V0z" fill="#1D1D1D"/>
    <path fill-rule="evenodd" clip-rule="evenodd" d="M3.542 9.134h.666l.316-.746.373.741.682.037-.583.635.3.765-.742-.426-.684.43.258-.743-.586-.693zm-2-2h.666l.316-.746.373.741.682.038-.583.634.3.765-.742-.426-.684.43.258-.743-.586-.693zm2-1h.666l.316-.746.373.741.682.038-.583.634.3.765-.742-.426-.684.43.258-.743-.586-.693z" fill="#EEEEF6"/>
    <path fill-rule="evenodd" clip-rule="evenodd" d="M4.856 8.282l.457-.015.166-.472.185.47.421.04-.379.268.306.475-.53-.199-.46.205.242-.468-.408-.304zm1-1l.457-.015.166-.472.185.47.421.04-.379.268.306.475-.53-.199-.46.205.242-.468-.408-.304z" fill="#EEEEF6"/>
    <path fill-rule="evenodd" clip-rule="evenodd" d="M10.542 1s-1.544.308-1.111 2.455h-.22s.018-.112-.194-.178c-.212-.065-.17-.04-.279 0-.11.041-.774 0-.774 0v.082l.47.204s-.011.169.186.263c.196.093.34.139.34.139s.028.186-.156.186-.926-.24-1.19.35C7.351 5.093 7 5.526 7 5.526h.395l-.106.132h.446l-.12.069s.55-.006.593-.069c.043-.062 0 .169 0 .169s.534-.244.563-.3l.249.17.071-.289.267.118.073-.275s.756 1.264 1.33 1.192v-.21l.523.21.066-.094s.632.258.827.282l-.139-.282h.139l-.139-.522h.139l-.278-.419.078-.113-.051-.15s1.017.325.971.84c-.046.517-.499.725-.499.725s-.434.133-.827.104c0 0 .312.368.971.244.66-.125.878-.764.878-.764s.302.628.053.958c-.248.33-1.357.562-1.357.562s.401.235.781.175.972-.391 1.086-.931c.115-.54-.395-1.536-.626-1.65l-.091-.345.207.083-.426-1.042.207.045-.603-.75.166-.051-.833-.6.25-.065s-.617-.312-1.319.066l.007-.13-.185.03.011-.143.184-.278-.276-.106s.223-.335.19-.33c0 0-.249.071-.235.041 0 0 .125-.322.092-.313 0 0-.287.097-.245.048l.11-.196L10.543 1z" fill="#FBCD17"/>
  </g>
</svg>
